SVG_Azure_All/Capacity Reservation Group.svg

<?xml version="1.0" encoding="UTF-8" standalone="no"?>
<!-- Generated by Microsoft Visio, SVG Export Capacity Reservation Group.svg Page-1 -->

<svg
   xmlns:dc="http://purl.org/dc/elements/1.1/"
   xmlns:cc="http://creativecommons.org/ns#"
   xmlns:rdf="http://www.w3.org/1999/02/22-rdf-syntax-ns#"
   xmlns:svg="http://www.w3.org/2000/svg"
   xmlns="http://www.w3.org/2000/svg"
   xmlns:sodipodi="http://sodipodi.sourceforge.net/DTD/sodipodi-0.dtd"
   xmlns:inkscape="http://www.inkscape.org/namespaces/inkscape"
   width="0.66922688in"
   height="0.78743416in"
   viewBox="0 0 48.184221 56.69557"
   xml:space="preserve"
   class="st6"
   version="1.1"
   id="svg49"
   sodipodi:docname="Capacity Reservation Group.svg"
   style="font-size:12px;overflow:visible;color-interpolation-filters:sRGB;fill:none;fill-rule:evenodd;stroke-linecap:square;stroke-miterlimit:3"
   inkscape:version="0.92.5 (2060ec1f9f, 2020-04-08)"><metadata
   id="metadata55"><rdf:RDF><cc:Work
       rdf:about=""><dc:format>image/svg+xml</dc:format><dc:type
         rdf:resource="http://purl.org/dc/dcmitype/StillImage" /></cc:Work></rdf:RDF></metadata><defs
   id="defs53" /><sodipodi:namedview
   pagecolor="#ffffff"
   bordercolor="#666666"
   borderopacity="1"
   objecttolerance="10"
   gridtolerance="10"
   guidetolerance="10"
   inkscape:pageopacity="0"
   inkscape:pageshadow="2"
   inkscape:window-width="640"
   inkscape:window-height="480"
   id="namedview51"
   showgrid="false"
   inkscape:zoom="1.4193119"
   inkscape:cx="32.125892"
   inkscape:cy="37.786278"
   inkscape:window-x="0"
   inkscape:window-y="0"
   inkscape:window-maximized="0"
   inkscape:current-layer="svg49" />
	<style
   type="text/css"
   id="style2">
	<![CDATA[
		.st1 {fill:#a33a85;stroke:none;stroke-linecap:butt;stroke-width:34}
		.st2 {fill:#59285f;stroke:none;stroke-linecap:butt;stroke-width:34}
		.st3 {fill:#a33a85;fill-opacity:0.6;stroke:none;stroke-linecap:butt;stroke-width:34}
		.st4 {fill:#dc92bf;fill-opacity:0.6;stroke:none;stroke-linecap:butt;stroke-width:34}
		.st5 {fill:#ce74b6;fill-opacity:0.6;stroke:none;stroke-linecap:butt;stroke-width:34}
		.st6 {fill:none;fill-rule:evenodd;font-size:12px;overflow:visible;stroke-linecap:square;stroke-miterlimit:3}
	]]>
	</style>

	<g
   id="g47"
   transform="translate(-34.000406,-33.998795)">
		<title
   id="title4">Page-1</title>
		<g
   id="group7185-1"
   transform="translate(34,-34.0157)">
			<title
   id="title6">Capacity Reservation Group</title>
			<g
   id="group7186-2">
				<title
   id="title8">Sheet.7186</title>
				<g
   id="shape7187-3"
   transform="translate(4.09808,-13.9264)">
					<title
   id="title10">Sheet.7187</title>
					<path
   d="m 39.99,112.8 -5.32,3.18 -5.34,3.15 -9.35,5.58 -9.32,-5.58 -5.32,-3.15 -5.34,-3.18 4.19,-2.48 15.79,9.38 15.81,-9.38 z"
   class="st1"
   id="path12"
   inkscape:connector-curvature="0"
   style="fill:#a33a85;stroke:none;stroke-width:34;stroke-linecap:butt" />
				</g>
				<g
   id="shape7188-5"
   transform="translate(4.09808,-8.50952)">
					<title
   id="title15">Sheet.7188</title>
					<path
   d="m 39.99,107.39 v 5.41 L 19.98,124.71 0,112.8 v -5.41 l 5.34,3.18 5.32,3.15 9.32,5.57 9.35,-5.57 5.34,-3.15 z"
   class="st2"
   id="path17"
   inkscape:connector-curvature="0"
   style="fill:#59285f;stroke:none;stroke-width:34;stroke-linecap:butt" />
				</g>
				<g
   id="shape7189-7"
   transform="translate(4.09808,-24.3822)">
					<title
   id="title20">Sheet.7189</title>
					<path
   d="m 39.99,112.84 -5.32,3.14 -3.45,2.05 -1.89,1.14 -9.35,5.54 -9.32,-5.54 -1.9,-1.14 L 5.34,115.98 0,112.84 19.98,100.9 Z"
   class="st1"
   id="path22"
   inkscape:connector-curvature="0"
   style="fill:#a33a85;stroke:none;stroke-width:34;stroke-linecap:butt" />
				</g>
				<g
   id="shape7190-9"
   transform="translate(4.09808,-18.9338)">
					<title
   id="title25">Sheet.7190</title>
					<path
   d="m 39.99,107.39 v 5.41 l -4.2,2.52 -15.81,9.39 L 4.19,115.32 0,112.8 v -5.41 l 5.34,3.15 3.42,2.04 1.9,1.14 9.32,5.54 9.35,-5.54 1.89,-1.14 3.45,-2.04 z"
   class="st2"
   id="path27"
   inkscape:connector-curvature="0"
   style="fill:#59285f;stroke:none;stroke-width:34;stroke-linecap:butt" />
				</g>
				<g
   id="shape7191-11"
   transform="translate(24.0945)">
					<title
   id="title30">Sheet.7191</title>
					<path
   d="m 24.09,83.12 v 26.5 a 1.75543,1.77938 0 0 1 -0.87,1.55 L 0.89,124.46 A 1.75854,1.78253 0 0 1 0,124.71 V 96.43 l 23.86,-14.2 a 1.76786,1.79197 0 0 1 0.23,0.89 z"
   class="st3"
   id="path32"
   inkscape:connector-curvature="0"
   style="fill:#a33a85;fill-opacity:0.6;stroke:none;stroke-width:34;stroke-linecap:butt" />
				</g>
				<g
   id="shape7192-13"
   transform="translate(0.233022,-28.2748)">
					<title
   id="title35">Sheet.7192</title>
					<path
   d="m 47.72,110.51 -23.86,14.16 v 0.04 L 0,110.5 a 1.71194,1.73529 0 0 1 0.64,-0.66 L 22.99,96.53 a 1.76786,1.79197 0 0 1 1.77,0 l 22.33,13.31 a 1.76165,1.78568 0 0 1 0.63,0.67 z"
   class="st4"
   id="path37"
   inkscape:connector-curvature="0"
   style="fill:#dc92bf;fill-opacity:0.6;stroke:none;stroke-width:34;stroke-linecap:butt" />
				</g>
				<g
   id="shape7193-15">
					<title
   id="title40">Sheet.7193</title>
					<path
   d="m 24.09,96.43 v 28.28 a 1.69951,1.72269 0 0 1 -0.88,-0.24 L 0.87,111.17 A 1.75543,1.77938 0 0 1 0,109.62 V 83.11 a 1.75233,1.77623 0 0 1 0.23,-0.88 z"
   class="st5"
   id="path42"
   inkscape:connector-curvature="0"
   style="fill:#ce74b6;fill-opacity:0.6;stroke:none;stroke-width:34;stroke-linecap:butt" />
				</g>
			</g>
		</g>
	</g>
</svg>

<?xml version="1.0" encoding="UTF-8" standalone="no"?>
<!DOCTYPE svg PUBLIC "-//W3C//DTD SVG 1.1//EN" "http://www.w3.org/Graphics/SVG/1.1/DTD/svg11.dtd">
<!-- Generated by Microsoft Visio, SVG Export Capacity Reservation Group.svg Page-1 -->
<svg xmlns="http://www.w3.org/2000/svg" xmlns:xlink="http://www.w3.org/1999/xlink" xmlns:ev="http://www.w3.org/2001/xml-events"
		width="1.61374in" height="1.73206in" viewBox="0 0 116.189 124.709" xml:space="preserve" color-interpolation-filters="sRGB"
		class="st6">
	<style type="text/css">
	<![CDATA[
		.st1 {fill:#a33a85;stroke:none;stroke-linecap:butt;stroke-width:34}
		.st2 {fill:#59285f;stroke:none;stroke-linecap:butt;stroke-width:34}
		.st3 {fill:#a33a85;fill-opacity:0.6;stroke:none;stroke-linecap:butt;stroke-width:34}
		.st4 {fill:#dc92bf;fill-opacity:0.6;stroke:none;stroke-linecap:butt;stroke-width:34}
		.st5 {fill:#ce74b6;fill-opacity:0.6;stroke:none;stroke-linecap:butt;stroke-width:34}
		.st6 {fill:none;fill-rule:evenodd;font-size:12px;overflow:visible;stroke-linecap:square;stroke-miterlimit:3}
	]]>
	</style>

	<g>
		<title>Page-1</title>
		<g id="group7017-1" transform="translate(34,-34.0157)">
			<title>Capacity Reservation Group</title>
			<g id="group7018-2">
				<title>Sheet.7018</title>
				<g id="shape7019-3" transform="translate(4.09808,-13.9264)">
					<title>Sheet.7019</title>
					<path d="M39.99 112.8 L34.67 115.98 L29.33 119.13 L19.98 124.71 L10.66 119.13 L5.34 115.98 L0 112.8 L4.19 110.32
								 L19.98 119.7 L35.79 110.32 L39.99 112.8 Z" class="st1"/>
				</g>
				<g id="shape7020-5" transform="translate(4.09808,-8.50952)">
					<title>Sheet.7020</title>
					<path d="M39.99 107.39 L39.99 112.8 L19.98 124.71 L0 112.8 L0 107.39 L5.34 110.57 L10.66 113.72 L19.98 119.29
								 L29.33 113.72 L34.67 110.57 L39.99 107.39 Z" class="st2"/>
				</g>
				<g id="shape7021-7" transform="translate(4.09808,-24.3822)">
					<title>Sheet.7021</title>
					<path d="M39.99 112.84 L34.67 115.98 L31.22 118.03 L29.33 119.17 L19.98 124.71 L10.66 119.17 L8.76 118.03 L5.34
								 115.98 L0 112.84 L19.98 100.9 L39.99 112.84 Z" class="st1"/>
				</g>
				<g id="shape7022-9" transform="translate(4.09808,-18.9338)">
					<title>Sheet.7022</title>
					<path d="M39.99 107.39 L39.99 112.8 L35.79 115.32 L19.98 124.71 L4.19 115.32 L0 112.8 L0 107.39 L5.34 110.54
								 L8.76 112.58 L10.66 113.72 L19.98 119.26 L29.33 113.72 L31.22 112.58 L34.67 110.54 L39.99 107.39
								 Z" class="st2"/>
				</g>
				<g id="shape7023-11" transform="translate(24.0945,-2.70006E-13)">
					<title>Sheet.7023</title>
					<path d="M24.09 83.12 L24.09 109.62 A1.75543 1.77938 0 0 1 23.22 111.17 L0.89 124.46 A1.75854 1.78253 0 0 1 -0
								 124.71 L0 96.43 L23.86 82.23 A1.76786 1.79197 0 0 1 24.09 83.12 Z" class="st3"/>
				</g>
				<g id="shape7024-13" transform="translate(0.233022,-28.2748)">
					<title>Sheet.7024</title>
					<path d="M47.72 110.51 L23.86 124.67 L23.86 124.71 L0 110.5 A1.71194 1.73529 0 0 1 0.64 109.84 L22.99 96.53 A1.76786
								 1.79197 0 0 1 24.76 96.53 L47.09 109.84 A1.76165 1.78568 0 0 1 47.72 110.51 Z" class="st4"/>
				</g>
				<g id="shape7025-15">
					<title>Sheet.7025</title>
					<path d="M24.09 96.43 L24.09 124.71 A1.69951 1.72269 0 0 1 23.21 124.47 L0.87 111.17 A1.75543 1.77938 0 0 1 0
								 109.62 L0 83.11 A1.75233 1.77623 0 0 1 0.23 82.23 L24.09 96.43 Z" class="st5"/>
				</g>
			</g>
		</g>
	</g>
</svg>
